X:1
T:Title
%%score { 1 | 2 }
L:1/8
Q:1/4=90
M:3/8
K:G
V:1 treble nm="Grand Piano"
V:2 bass 
V:1
 [DB][^C_B][D=B] | [B,G]3 | [EA][G,E][CDF] | [B,DG]3 | [Bd][ce][Bd] | [DAc][DGB][DFA] | %6
w: Chester~G.~Allen * *||||||
 [DGB][DAc][DGB] | [DFA]3 | B_B=B | G3 | [EA][G,E][CDF] | [B,DG]3 | DGB | dcB | [CFA][DFB][CFA] | %15
w: |||||||||
 [B,G]3 |] %16
w: |
V:2
 [G,,G,][G,,G,][G,,G,] | [G,,G,]3 | [C,G,]C,D, | G,,3 | G,G,G, | D,D,D, | G,F,G, | D,3 | %8
 [G,D][G,^C][G,D] | [G,B,]3 | [C,G,]C,D, | G,,3 | [G,B,][G,B,][G,D] | [F,B,D][F,A,D][G,D] | %14
 D,D,D, | G,,3 |] %16

